site/static/img/social/facebook.svg

<svg height="47" viewBox="0 0 47 47" width="47" xmlns="http://www.w3.org/2000/svg"><g fill="none" fill-rule="evenodd"><circle cx="23.5" cy="23.5" fill="#fff" r="23.5"/><path d="m28.1649572 15.3329947h2.8350428v-4.3329947h-3.5207008-.7279329s-2.6708342-.0641718-4.3738863 2.0877849c0 0-1.1597664 1.0633238-1.1775848 4.1766882h-.0006988v3.2495922h-4.1991964v4.6006588h4.1991964v11.8852759h4.8432782v-11.8852759h4.1663547l.5806693-4.6006588h-4.747024v-3.2495922h-.0013975c.0118789-.3629909.178009-1.9640915 2.1238801-1.9314784" fill="#e9364b"/></g></svg>

<?xml version="1.0" encoding="UTF-8"?>
<svg width="47px" height="47px" viewBox="0 0 47 47" version="1.1" xmlns="http://www.w3.org/2000/svg" xmlns:xlink="http://www.w3.org/1999/xlink">
    <!-- Generator: Sketch 61.1 (89650) - https://sketch.com -->
    <title>facebook</title>
    <desc>Created with Sketch.</desc>
    <g id="facebook" stroke="none" stroke-width="1" fill="none" fill-rule="evenodd">
        <circle id="Oval-Copy-5" fill="#FFFFFF" cx="23.5" cy="23.5" r="23.5"></circle>
        <path d="M28.1649572,15.3329947 L31,15.3329947 L31,11 L27.4792992,11 L26.7513663,11 C26.7513663,11 24.0805321,10.9358282 22.37748,13.0877849 C22.37748,13.0877849 21.2177136,14.1511087 21.1998952,17.2644731 L21.1991964,17.2644731 L21.1991964,20.5140653 L17,20.5140653 L17,25.1147241 L21.1991964,25.1147241 L21.1991964,37 L26.0424746,37 L26.0424746,25.1147241 L30.2088293,25.1147241 L30.7894986,20.5140653 L26.0424746,20.5140653 L26.0424746,17.2644731 L26.0410771,17.2644731 C26.052956,16.9014822 26.2190861,15.3003816 28.1649572,15.3329947" id="Fill-1" fill="#E9364B"></path>
    </g>
</svg>
